X:304
T:Caribou Reel
T:As written by Andy De Jarlis, Canadian Fiddle Tunes, p. 5
M:2/4
L:1/16
C:Andy De Jarlis
Z:abc originally from Bruce Osborne,
Z:modified by Phil Katz (to match book including most chords) & 
Z:Peter Yarensky (formatting & A7, A8 chords to match book).
Z:<http://tunes.nhcountrydance.com>.
K:Em
|:"Em" Be2e efed | Be2e efed | "G"  Bd2d dedc  | BGBc      dedc |
  "Em" Be2e efed | Bdef g2fg | "D/D" af"A7/E"ge "D/F#" fd"A/A"e^c \
|1 "Bm"dB"B7"AF "Em"E2 z2 :|2 "Bm"dB"B7"AF "Em"E2Bc |]
|:"Em" BGE2 EFGA | BGE2 Ec"tr"B2 | "D"D3D D2DD    | A,DDD D2Bc |
  "Em" BGE2 EFGA | BGBe e3e      | "Em"efed B^cdB \
|1 "B7"AGF^D "Em"E2Bc :|2"B7"AGF^D "Em"E2 z2 |]

